X: 84
T:Kit O'Mahoney's
M:4/4
L:1/8
R:Hornpipe
Z:Andrew Pickering, 21/4/2000
K:G
GA|B2BG ABAG|FGAB cAFA|DGBd cAFA|D2 G2 G3 A|B2BG ABAG|FGAB cAFA|f3 d ecA
F|D2 G2 G2:|
GD|GABc d2 g2|defd cAFA|GABc d2 ef|gagf d2 ef|gBeg fAAf|efed ^cd (3efg|f
afd ecAF|D2 G2 G2:|

